img/ingridients-icons/pumpkin-seeds.svg

<svg width="21" height="24" viewBox="0 0 21 24" fill="none" xmlns="http://www.w3.org/2000/svg">
<g clip-path="url(#clip0)">
<path d="M20.4822 10.1448L20.3037 9.43559L19.6462 9.97101C19.4114 9.31348 19.1624 8.91896 19.0497 8.75457L18.9229 8.5761L18.7022 8.55731C18.5566 8.54792 18.2372 8.53853 17.7769 8.59489L18.0681 7.70722L17.2556 7.90448C17.0301 7.96084 16.7812 8.03129 16.5135 8.12052C16.5135 8.12052 16.5135 8.12052 16.5135 8.11583C16.6168 2.76162 14.3624 0.385103 14.1041 0.13618C14.0994 0.131483 14.0947 0.131483 14.09 0.126786C14.0853 0.12209 14.0806 0.112696 14.0759 0.108C14.0431 0.0845163 14.0102 0.0704263 13.9726 0.0516396C13.9538 0.0422462 13.9397 0.0328529 13.9209 0.0234595C13.8599 0.00467284 13.7941 -0.0047205 13.7284 -2.38311e-05C13.7284 -2.38311e-05 13.7284 -2.38311e-05 13.7237 -2.38311e-05C13.3667 0.0375496 10.1213 0.483733 6.83366 4.75301C6.64579 5.03951 6.47202 5.34009 6.30763 5.64538C4.81409 4.57454 3.6728 4.30213 3.33933 4.24107C3.20313 4.21759 3.06223 4.25516 2.9589 4.3444C2.78982 4.49 1.78474 5.40585 0.990998 7.37375C0.981605 7.39724 0.972211 7.41602 0.962818 7.43951C0.493151 8.62776 0.0986301 10.1824 0 12.1784C0.0375734 13.3338 0.216047 14.5127 0.535421 15.6775C0.854795 16.8422 1.30098 17.946 1.87867 18.9933C3.22192 21.0129 4.44305 21.5154 5.43875 21.5154C6.03053 21.5154 6.54716 21.337 6.95577 21.1961C7.17182 21.1209 8.10646 20.8579 8.26145 20.825C8.72642 21.7691 9.52485 22.1589 10.1072 22.4407C10.3139 22.5393 11.3049 23.1076 11.4975 23.2297C11.9953 23.5585 12.6622 24 13.5875 24C14.4658 24 15.5742 23.6008 16.9879 22.3233C17.7816 21.4779 18.4861 20.5197 19.0826 19.4677C19.6791 18.4203 20.1487 17.3213 20.4775 16.1706C21.0411 13.4184 20.7922 11.3753 20.4822 10.1448ZM17.4528 9.59058C17.8755 9.50135 18.1996 9.48256 18.411 9.47786C18.5331 9.68921 18.7115 10.0556 18.8759 10.591L16.4947 12.5166L17.4528 9.59058ZM12.62 1.24929C12.2489 1.8035 11.8779 2.43285 11.4834 3.18902C11.3659 3.41446 11.4505 3.69626 11.6759 3.81837C11.7464 3.85594 11.8215 3.87003 11.892 3.87003C12.0611 3.87003 12.2207 3.7808 12.3053 3.62111C12.8313 2.62072 13.3057 1.85516 13.7941 1.20232C14.4282 2.03833 15.6587 4.17062 15.5836 8.05947C15.5695 8.20506 15.5507 8.35066 15.5272 8.49626C15.5131 8.50095 15.5037 8.50565 15.4896 8.51504C15.3675 8.5714 15.2407 8.62776 15.1092 8.69352C15.0247 8.73579 14.9401 8.77806 14.8556 8.82033C14.8086 8.84381 14.7569 8.87199 14.71 8.89547C14.2356 9.1491 13.7659 9.43559 13.2963 9.75966C13.2634 9.77845 13.2352 9.80193 13.2023 9.82542C13.0943 9.90056 12.9863 9.98041 12.8783 10.0603C12.8313 10.0931 12.789 10.126 12.7421 10.1636C12.6434 10.2387 12.5448 10.3139 12.4462 10.3937C12.3851 10.4454 12.3194 10.497 12.2536 10.5487C12.1691 10.6145 12.0892 10.6849 12.0047 10.7554C11.8544 10.8822 11.7041 11.0137 11.5538 11.1499C11.3566 11.3612 11.164 11.5773 10.9761 11.8027C10.591 12.2677 10.2294 12.7608 9.89589 13.2822C9.7456 13.517 9.6 13.7565 9.4591 14.0008C9.44031 14.0336 9.42153 14.0712 9.40274 14.1041C9.24305 14.3859 9.09746 14.6724 8.95656 14.9636C8.95186 14.9683 8.95186 14.9777 8.94716 14.9871L8.93777 15.0105C8.93307 15.0199 8.92838 15.0293 8.92368 15.0387C8.90959 15.0716 8.8908 15.1092 8.87671 15.142C9.24305 12.1456 9.91468 9.33227 10.8869 6.77258C10.9761 6.53305 10.8587 6.26534 10.6145 6.1714C10.375 6.08217 10.1025 6.19958 10.0133 6.44381C8.98943 9.15379 8.28493 12.1362 7.91859 15.3158C7.83405 15.2923 7.75421 15.2642 7.66497 15.2407C6.6411 14.9542 5.3636 14.6019 5.42466 11.4927C5.53268 10.4125 5.7816 9.32287 6.15734 8.25203C6.3546 7.68843 6.59883 7.12013 6.88063 6.55653C6.88063 6.55184 6.88063 6.55184 6.88532 6.54714C7.10607 6.11035 7.3409 5.68765 7.59452 5.29313C9.55303 2.75692 11.4364 1.69548 12.62 1.24929ZM7.97965 19.9327C7.80117 19.9749 6.96047 20.2098 6.65519 20.3178C5.6501 20.6653 4.40078 21.1021 2.6771 18.5143C2.15108 17.5655 1.73307 16.5276 1.43718 15.4332C1.13659 14.3389 0.967515 13.2352 0.934638 12.1878C1.02387 10.4501 1.34325 9.08804 1.73307 8.03129C2.43288 7.99841 3.13268 7.90448 3.809 7.7354C4.05793 7.67434 4.21292 7.42072 4.14716 7.1718C4.08611 6.92287 3.83249 6.76788 3.58356 6.82894C3.1092 6.94636 2.62544 7.0215 2.13699 7.06847C2.62544 6.06808 3.13738 5.4716 3.40039 5.20389C3.82309 5.31191 4.73425 5.62659 5.88493 6.47669C5.87084 6.50487 5.86145 6.53775 5.84736 6.56593C5.75342 6.76788 5.65949 6.97454 5.57495 7.18119C5.47162 7.43481 5.37299 7.68373 5.28845 7.93266C4.88924 9.06925 4.62622 10.234 4.50411 11.4223C4.42896 15.2876 6.30763 15.8137 7.42544 16.1237C7.64618 16.1847 8.30372 16.4665 8.31781 16.4665C8.3225 16.4665 8.33659 16.4665 8.33659 16.4665C8.3272 16.49 8.3225 16.5182 8.31311 16.5464C8.22388 16.7906 8.14873 17.0254 8.08297 17.2509C8.07828 17.2649 8.07828 17.2743 8.07358 17.2884C8.02192 17.5374 7.98434 17.7722 7.95616 17.9976C7.94677 18.0728 7.94207 18.1479 7.93268 18.2231C7.91859 18.3687 7.9045 18.519 7.89511 18.6552C7.89041 18.7303 7.89041 18.7961 7.89041 18.8712C7.88571 19.0121 7.89041 19.1483 7.89511 19.2798C7.8998 19.3315 7.8998 19.3831 7.9045 19.4301C7.91859 19.6039 7.93738 19.7636 7.96556 19.9139C7.97495 19.9186 7.97495 19.928 7.97965 19.9327ZM19.5804 15.9546C19.2798 16.9972 18.8431 18.0258 18.2795 19.0121C17.7205 19.9984 17.0583 20.9002 16.3444 21.661C14.0102 23.7698 12.9065 23.0419 12.0188 22.4548C11.7511 22.2763 10.807 21.7409 10.5205 21.6C9.95225 21.3229 9.30411 21.0035 8.99883 20.1581C8.99883 20.1487 8.99883 20.1393 8.99413 20.1346C8.76869 19.4865 8.76869 18.5988 8.98943 17.4998C9.04579 17.3025 9.11155 17.1006 9.182 16.9033C9.24305 16.7248 9.3135 16.537 9.39335 16.335C9.51546 16.0203 9.65166 15.7103 9.79256 15.4098C9.80196 15.3863 9.81605 15.3581 9.81605 15.3581C9.81605 15.3581 9.81605 15.3581 9.81605 15.3534C9.96164 15.0434 10.1166 14.7475 10.281 14.4563C10.4125 14.2262 10.5487 14.0008 10.6896 13.78C10.8352 13.5546 10.9855 13.3338 11.1405 13.1225L11.1452 13.1178C11.1452 13.1178 11.1452 13.1178 11.1452 13.1131C11.4834 12.6481 11.8403 12.2066 12.216 11.8074C12.4086 11.6336 12.6012 11.4693 12.789 11.3143C12.8454 11.2673 12.9018 11.225 12.9534 11.1781C13.0943 11.0653 13.2305 10.9573 13.3667 10.8587C13.4231 10.8164 13.4795 10.7741 13.5358 10.7319C13.6814 10.6285 13.8223 10.5252 13.9632 10.4313C14.0055 10.4031 14.0477 10.3749 14.09 10.3467C14.4611 10.1025 14.818 9.89117 15.1609 9.708C15.2313 9.67043 15.3018 9.63755 15.3675 9.60467C15.4661 9.55771 15.5648 9.50604 15.6587 9.45908C15.7761 9.40272 15.8935 9.35105 16.011 9.30409C16.2317 9.21015 16.4477 9.12561 16.645 9.05516L14.6254 15.2313L19.726 11.1029C19.9233 12.2536 19.9937 13.888 19.5804 15.9546Z" fill="black"/>
<path d="M13.5827 11.9389C13.4371 12.0235 10.0461 14.1135 9.83006 18.3311C9.81597 18.5894 10.0132 18.8055 10.2715 18.8196C10.2809 18.8196 10.2856 18.8196 10.295 18.8196C10.5392 18.8196 10.7459 18.627 10.76 18.3781C10.9479 14.6677 14.0289 12.7562 14.0617 12.7374C14.2825 12.6059 14.3529 12.3194 14.2214 12.0986C14.0899 11.8779 13.8034 11.8074 13.5827 11.9389Z" fill="black"/>
</g>
<defs>
<clipPath id="clip0">
<rect width="20.8157" height="24" fill="white"/>
</clipPath>
</defs>
</svg>

<svg width="21" height="24" fill="none" xmlns="http://www.w3.org/2000/svg"><g clip-path="url(#clip0)" fill="#000"><path d="M20.482 10.145l-.178-.71-.658.536a5.304 5.304 0 00-.596-1.216l-.127-.179-.22-.019a5.056 5.056 0 00-.926.038l.291-.888-.812.197a9.861 9.861 0 00-.742.217v-.005c.103-5.354-2.152-7.73-2.41-7.98-.005-.005-.01-.005-.014-.01-.005-.004-.01-.013-.014-.018-.033-.023-.066-.038-.103-.056-.02-.01-.033-.02-.052-.029A.53.53 0 0013.728 0h-.004c-.357.038-3.603.484-6.89 4.753a12.02 12.02 0 00-.526.892c-1.494-1.07-2.635-1.343-2.969-1.404a.463.463 0 00-.38.103c-.17.146-1.174 1.062-1.968 3.03-.01.023-.019.042-.028.066C.493 8.628.099 10.182 0 12.178c.038 1.156.216 2.335.535 3.5.32 1.164.766 2.268 1.344 3.315 1.343 2.02 2.564 2.522 3.56 2.522.592 0 1.108-.178 1.517-.319.216-.075 1.15-.338 1.305-.371.465.944 1.264 1.334 1.846 1.616a30.12 30.12 0 011.39.789c.498.328 1.165.77 2.09.77.879 0 1.987-.4 3.4-1.677a14.918 14.918 0 002.096-2.855 14.95 14.95 0 001.395-3.297c.563-2.753.314-4.796.004-6.026zm-3.03-.554c.423-.09.748-.108.959-.113.122.211.3.578.465 1.113l-2.381 1.926.958-2.926zM12.62 1.249a20.504 20.504 0 00-1.137 1.94.47.47 0 00.193.63c.07.037.146.051.216.051.17 0 .329-.09.413-.249.526-1 1-1.766 1.49-2.419.633.836 1.864 2.969 1.789 6.857a6.938 6.938 0 01-.057.437.14.14 0 00-.037.019c-.123.056-.25.113-.38.179l-.254.126-.146.075c-.474.254-.944.54-1.414.865-.033.018-.06.042-.094.065a13.881 13.881 0 00-.756.569c-.06.051-.127.103-.192.155-.085.066-.165.136-.25.206-.15.127-.3.259-.45.395a14.813 14.813 0 00-1.658 2.133c-.15.234-.296.474-.437.718l-.056.103c-.16.282-.306.568-.446.86-.005.004-.005.014-.01.023l-.01.024-.013.028-.047.103c.366-2.996 1.038-5.81 2.01-8.37a.467.467 0 00-.874-.328c-1.024 2.71-1.728 5.692-2.094 8.872-.085-.024-.165-.052-.254-.075-1.024-.287-2.301-.64-2.24-3.748.108-1.08.357-2.17.732-3.241.198-.564.442-1.132.724-1.695 0-.005 0-.005.004-.01.221-.437.456-.86.71-1.254 1.958-2.536 3.841-3.598 5.025-4.044zM7.98 19.933a22.7 22.7 0 00-1.325.385c-1.005.347-2.254.784-3.978-1.804a13.776 13.776 0 01-1.24-3.08 14.01 14.01 0 01-.502-3.246c.089-1.738.408-3.1.798-4.157.7-.033 1.4-.127 2.076-.296a.468.468 0 00-.225-.906 9.994 9.994 0 01-1.447.24c.488-1 1-1.597 1.263-1.865.423.108 1.334.423 2.485 1.273-.014.028-.024.06-.038.089a14.378 14.378 0 00-.559 1.367 15.19 15.19 0 00-.784 3.49c-.075 3.865 1.804 4.39 2.921 4.7.221.062.879.343.893.343h.019c-.01.024-.014.052-.024.08-.09.245-.164.48-.23.705-.005.014-.005.023-.01.037a9.18 9.18 0 00-.117.71c-.01.075-.014.15-.023.225-.014.146-.029.296-.038.432-.005.075-.005.141-.005.216-.004.141 0 .277.005.409.005.051.005.103.01.15.014.174.032.334.06.484.01.005.01.014.015.019zm11.6-3.978a13.985 13.985 0 01-1.3 3.057 13.94 13.94 0 01-1.936 2.649c-2.334 2.109-3.438 1.38-4.325.794a23.638 23.638 0 00-1.498-.855c-.569-.277-1.217-.597-1.522-1.442 0-.01 0-.019-.005-.023-.225-.649-.225-1.536-.005-2.635.057-.198.123-.4.193-.597a14.798 14.798 0 01.61-1.494l.024-.05v-.006a13.429 13.429 0 01.874-1.573c.145-.225.296-.446.45-.657l.005-.005v-.005a13.48 13.48 0 011.071-1.306c.193-.173.385-.338.573-.493.056-.047.113-.089.164-.136.141-.113.277-.22.414-.32l.169-.126c.145-.103.286-.207.427-.3l.127-.085a13.64 13.64 0 011.07-.639c.071-.038.142-.07.207-.103.1-.047.198-.099.292-.146.117-.056.234-.108.352-.155.22-.094.437-.178.634-.249l-2.02 6.176 5.101-4.128c.197 1.15.268 2.785-.146 4.852z"/><path d="M13.583 11.939c-.146.085-3.537 2.175-3.753 6.392a.464.464 0 00.441.489h.024c.244 0 .45-.193.465-.442.188-3.71 3.269-5.622 3.302-5.64a.466.466 0 00-.48-.8z"/></g><defs><clipPath id="clip0"><path fill="#fff" d="M0 0h20.816v24H0z"/></clipPath></defs></svg>
